X:1
T:Hallowed Night
T:Asa Hull
T:Hallowed Night
T:Public Domain
T:Public Domain
C:Asa Hull
Z:Public Domain
%%score ( 1 2 ) ( 3 4 )
L:1/8
M:6/8
K:Eb
V:1 treble 
V:2 treble 
V:3 bass 
V:4 bass 
V:1
 ([EG]3- GF)E | [DB]3- [DB]2 z | ([Fd]3- dc)[AB] | [Ge]3- [Ge]2 z | [EG]3 [EG]3 | [EB]3- [EB]2 z | %6
w: 1.~Si- * * *|hal- *|lowed * * night!|Land *|and deep|si- *|
w: 2.~Si- * * *|hal- *|lowed * * night!|On *|the plain|wakes *|
w: 3.~Si- * * *|hal- *|lowed * * night!|Earth *|a- wake,|si- *|
 [DB]3 [DF]3 | [EG]3- [EG]2 z |"^Duet or Quartette" E2 [EG] [GB]>[FA][EG] | [DF][EG][DF] E3 | %10
w: lent sleep.|Soft- *|ly glit- ters bright Beth-|hem’s Star, Beck- oning|
w: the strain,|Sung *|by heav- en- ly har-|gers bright, Filled with|
w: lence break.|High *|your cho- rus of mel-|dy raise; Sing to|
 [EA]2 [Ac] [ce]>[Bd][Ac] | [GB][Ac][GB] [EG]3 |"^Full Chorus" [Fd][Fd][Fd] [Fd][Ec][Fd] | %13
w: ra- el’s eye from a-|far, Whe- re the|Sav- ior is born, Whe- re|
w: ings of bound- less de-|light, Je- sus, the|Sav- ior has come, Je- sus,|
w: ven in an- thems of|praise, Pea- ce for-|ev- er shall reign, Pea- ce|
 ([Ge]3 [Ac]2) z | [DB][DB][DB] [AB][Ac][Ad] | [Ge]3- [Ge]2 z |] %16
w: the *|Sa- vior is born. * *||
w: the *|Sav- ior has come. * *||
w: for- *|ev- er shall reign. * *||
V:2
 x3 E2 E | x6 | x3 F2 x | x6 | x6 | x6 | x6 | x6 | E2 x4 | x3 E3 | x6 | x6 | x6 | x6 | x6 | x6 |] %16
w: lent night!||||||||le-|Is-|||||||
w: lent night!||||||||bin-|tid-|||||||
w: lent night!||||||||o-|Hea-|||||||
V:3
 ([E,B,]3- B,A,)[E,G,] | [B,,F,]3- [B,,F,]2 z | ([B,,B,]3- [B,,B,][C,=A,])[D,B,] | %3
 [E,B,]3- [E,B,]2 z | [E,B,]3 [E,B,]3 | [E,G,]3- [E,G,]2 z | [B,,F,]3 [B,,B,]3 | %7
 [E,B,]3- [E,B,]2 z | [E,G,]2 [E,B,] [E,B,]>[E,B,][E,B,] | [B,,B,][B,,B,][B,,A,] [E,G,]3 | %10
 [A,C]2 [A,E] [A,E]>[A,E][A,E] | [E,E][E,E][E,E] [E,B,]3 | %12
 [B,,B,][B,,B,][B,,B,] [B,,B,][B,,B,][B,,B,] | ([E,B,]3 [A,,A,]2) z | %14
 [B,,F,][B,,F,][B,,F,] [B,,B,][B,,B,][B,,B,] | [E,B,]3- [E,B,]2 z |] %16
V:4
 x3 E,2 x | x6 | x6 | x6 | x6 | x6 | x6 | x6 | x6 | x6 | x6 | x6 | x6 | x6 | x6 | x6 |] %16

